icons/assets/dark/braces.svg

<svg width="48" height="48" viewBox="0 0 48 48" fill="none" xmlns="http://www.w3.org/2000/svg">
<path d="M15.6283 8.08185L14.1307 8.08151C11.5813 8.08151 14.1307 18.2065 11.5813 21.0773C10.3977 22.4102 8 23.9074 8 23.9074C8 23.9074 10.3699 25.0906 11.5813 26.2383C14.1307 28.6538 11.5813 39.9181 14.1307 39.9181L15.6283 39.9185M32.3717 39.9181L33.8693 39.9185C36.4187 39.9185 33.8693 29.7935 36.4187 26.9227C37.6023 25.5898 40 24.0926 40 24.0926C40 24.0926 37.6301 22.9094 36.4187 21.7617C33.8693 19.3462 36.4187 8.08185 33.8693 8.08185L32.3717 8.08151" stroke="#62646A" stroke-width="3.5" stroke-linecap="round" stroke-linejoin="round"/>
</svg>

<svg width="48" height="48" fill="none" xmlns="http://www.w3.org/2000/svg"><path d="M15.628 8.082h-1.497c-2.55 0 0 10.124-2.55 12.995C10.398 22.41 8 23.907 8 23.907s2.37 1.184 3.581 2.331c2.55 2.416 0 13.68 2.55 13.68h1.497m16.744 0h1.497c2.55 0 0-10.124 2.55-12.995C37.602 25.59 40 24.093 40 24.093s-2.37-1.184-3.581-2.331c-2.55-2.416 0-13.68-2.55-13.68h-1.497" stroke="#62646A" stroke-width="3.5" stroke-linecap="round" stroke-linejoin="round"/></svg>
